brandFactory_export/3.Masa/Programar alarma _3Masa.svg

<?xml version="1.0" encoding="UTF-8"?>
<svg width="24px" height="24px" viewBox="0 0 24 24" version="1.1" xmlns="http://www.w3.org/2000/svg" xmlns:xlink="http://www.w3.org/1999/xlink">
    <title>3.Masa/Programar alarma _3Masa</title>
    <g id="Symbols" stroke="none" stroke-width="1" fill="none" fill-rule="evenodd">
        <g id="3.Masa/Programar-alarma-_3Masa" fill="#5CB615" fill-rule="nonzero">
            <path d="M1.45546218,11.1159664 C1.45546218,14.6184874 3.09915966,16.2487395 6.62184874,16.2487395 C10.1445378,16.2487395 11.7882353,14.6184874 11.7882353,11.1159664 C11.7882353,7.61344538 10.1445378,5.98319328 6.62184874,5.98319328 C3.09915966,5.98319328 1.45546218,7.61344538 1.45546218,11.1159664 Z M23.3546218,18.8571429 C23.5966387,19.0487395 23.6840336,19.3680672 23.5764706,19.6571429 C23.4789916,19.9462185 23.210084,20.1411765 22.897479,20.1411765 L16.6252101,20.1411765 C16.5848739,20.8 16.4033613,21.7714286 15.7142857,22.5344538 C15.0722689,23.2571429 14.1411765,23.6235294 12.9579832,23.6235294 C11.7714286,23.6235294 10.8403361,23.2571429 10.1983193,22.5344538 C9.5092437,21.7714286 9.33445378,20.7966387 9.29747899,20.1411765 L3.02521008,20.1411765 C2.71596639,20.1411765 2.44369748,19.9495798 2.34285714,19.6571429 C2.23865546,19.3680672 2.32605042,19.0487395 2.56806723,18.8571429 C3.06218487,18.4504202 3.47226891,17.9226891 3.81176471,17.2941176 C1.37478992,16.4941176 0.00672268908,14.4773109 0.00672268908,11.1193277 C0.00672268908,7.12605042 1.94957983,5.03193277 5.33781513,4.62521008 C7.14621849,-0.124369748 12.4470588,-0.0168067227 12.9613445,0.0134453782 C13.3983193,-0.0168067227 16.5647059,-0.100840336 18.8638655,2.0302521 C20.3966387,3.4487395 21.1764706,5.49579832 21.1764706,8.12773109 L21.1764706,12.692437 C21.1596639,12.7764706 20.9478992,16.897479 23.3546218,18.8571429 Z M8.65882353,14.0470588 C8.47394958,14.0470588 8.28571429,13.9764706 8.14453782,13.8352941 L6.10756303,11.8117647 C5.9697479,11.6773109 5.89243697,11.492437 5.89243697,11.3008403 L5.89243697,8.56134454 C5.89243697,8.16134454 6.21848739,7.83865546 6.62184874,7.83865546 C7.02521008,7.83865546 7.3512605,8.16134454 7.3512605,8.56134454 L7.3512605,11.0016807 L9.17647059,12.8134454 C9.46218487,13.0957983 9.46218487,13.5529412 9.17647059,13.8352941 C9.03193277,13.9764706 8.84705882,14.0470588 8.65882353,14.0470588 L8.65882353,14.0470588 Z" id="Programar-alarma-_3Masa"></path>
        </g>
    </g>
</svg>

<svg width="24" height="24" viewBox="0 0 24 24" xmlns="http://www.w3.org/2000/svg"><path d="M1.455 11.116c0 3.502 1.644 5.133 5.167 5.133 3.523 0 5.166-1.63 5.166-5.133s-1.643-5.133-5.166-5.133c-3.523 0-5.167 1.63-5.167 5.133zm21.9 7.741c.242.192.329.511.221.8a.71.71 0 01-.679.484h-6.272c-.04.659-.222 1.63-.91 2.393-.643.723-1.574 1.09-2.757 1.09-1.187 0-2.118-.367-2.76-1.09-.689-.763-.864-1.737-.9-2.393H3.024a.717.717 0 01-.682-.484.708.708 0 01.225-.8c.494-.407.904-.934 1.244-1.563-2.437-.8-3.805-2.817-3.805-6.175 0-3.993 1.943-6.087 5.33-6.494 1.81-4.75 7.11-4.642 7.624-4.612.437-.03 3.604-.114 5.903 2.017 1.533 1.419 2.312 3.466 2.312 6.098v4.564c-.016.084-.228 4.205 2.179 6.165zm-14.696-4.81a.728.728 0 01-.514-.212l-2.037-2.023a.715.715 0 01-.216-.511V8.56c0-.4.326-.722.73-.722.403 0 .73.322.73.722v2.44l1.824 1.812a.716.716 0 010 1.022.736.736 0 01-.517.212z" fill="#5CB615" fill-rule="nonzero"/></svg>
